X: 70
T: Lihongtai angua
%%abc-version 2.0
%%abcx-abcm2ps-target-version 5.9.1 (29 Sep 2008)
%%abc-creator hum2abc beta
%%abcx-conversion-date 2013/10/02 07:52:29
%%abc-edited-by Helmut Schaffrath
%%humdrum-veritas 2481924197
%%humdrum-veritas-data 1745151986
%%continueall 1
%%barnumbers 0
L: 1/8
M: 2/4
K: F
d d c A [I:setbarnb 1]| 
d d c A | 
c2d A | 
G FD2 | 
f f e d | 
c c A G | 
c F G D | 
C4 |]  



